icons/src/scalable/default/ui/window-new-symbolic.svg

<?xml version="1.0" encoding="UTF-8" standalone="no"?>
<svg
   xmlns:dc="http://purl.org/dc/elements/1.1/"
   xmlns:cc="http://creativecommons.org/ns#"
   xmlns:rdf="http://www.w3.org/1999/02/22-rdf-syntax-ns#"
   xmlns:svg="http://www.w3.org/2000/svg"
   xmlns="http://www.w3.org/2000/svg"
   xmlns:sodipodi="http://sodipodi.sourceforge.net/DTD/sodipodi-0.dtd"
   xmlns:inkscape="http://www.inkscape.org/namespaces/inkscape"
   height="16"
   width="16"
   version="1.1"
   id="svg8"
   sodipodi:docname="window-new-symbolic.svg"
   inkscape:version="0.92.5 (2060ec1f9f, 2020-04-08)">
  <metadata
     id="metadata14">
    <rdf:RDF>
      <cc:Work
         rdf:about="">
        <dc:format>image/svg+xml</dc:format>
        <dc:type
           rdf:resource="http://purl.org/dc/dcmitype/StillImage" />
        <dc:title />
      </cc:Work>
    </rdf:RDF>
  </metadata>
  <defs
     id="defs12" />
  <sodipodi:namedview
     pagecolor="#ffffff"
     bordercolor="#666666"
     borderopacity="1"
     objecttolerance="10"
     gridtolerance="10"
     guidetolerance="10"
     inkscape:pageopacity="0"
     inkscape:pageshadow="2"
     inkscape:window-width="1294"
     inkscape:window-height="704"
     id="namedview10"
     showgrid="true"
     inkscape:snap-global="true"
     showguides="true"
     inkscape:guide-bbox="true"
     inkscape:zoom="11.313709"
     inkscape:cx="-16.561415"
     inkscape:cy="7.4757688"
     inkscape:window-x="72"
     inkscape:window-y="27"
     inkscape:window-maximized="1"
     inkscape:current-layer="g6"
     showborder="false"
     inkscape:document-rotation="0">
    <inkscape:grid
       type="xygrid"
       id="grid3353" />
  </sodipodi:namedview>
  <g
     color="#000"
     fill="#bebebe"
     id="g6">
    <g
       transform="translate(-71.996853,-179.99766)"
       style="display:inline"
       id="g3340">
      <path
         style="color:#000000;font-style:normal;font-variant:normal;font-weight:normal;font-stretch:normal;font-size:medium;line-height:normal;font-family:sans-serif;text-indent:0;text-align:start;text-decoration:none;text-decoration-line:none;text-decoration-style:solid;text-decoration-color:#000000;letter-spacing:normal;word-spacing:normal;text-transform:none;writing-mode:lr-tb;direction:ltr;baseline-shift:baseline;text-anchor:start;white-space:normal;clip-rule:nonzero;display:inline;overflow:visible;visibility:visible;opacity:1;isolation:auto;mix-blend-mode:normal;color-interpolation:sRGB;color-interpolation-filters:linearRGB;solid-color:#000000;solid-opacity:1;fill:#bebebe;fill-opacity:1;fill-rule:nonzero;stroke:none;stroke-width:4.00079155;stroke-linecap:butt;stroke-linejoin:miter;stroke-miterlimit:4;stroke-dasharray:none;stroke-dashoffset:0;stroke-opacity:1;marker:none;color-rendering:auto;image-rendering:auto;shape-rendering:auto;text-rendering:auto;enable-background:accumulate"
         d="M 3.9492188 1 C 2.7050527 1.01457 1.7951412 0.96944565 1.0507812 1.3847656 C 0.6786063 1.5924156 0.38549025 1.9441555 0.22265625 2.3828125 C 0.05977925 2.8214735 0 3.34239 0 4 L 0 8 L 0 13 C -3.7007434e-17 13.65761 0.05982125 14.178515 0.22265625 14.617188 C 0.38548025 15.055844 0.6786063 15.407574 1.0507812 15.615234 C 1.7951412 16.0306 2.7050428 15.9855 3.9492188 16 L 3.953125 16 L 5.9335938 16 L 10.011719 16 L 10.5 16 L 10.5 14.996094 C 10.320637 14.996045 10.200575 15 10.011719 15 L 5.9335938 15 C 3.9558868 15 2.4878243 15.015624 1.7539062 14.775391 C 0.7813883 14.328181 0.98828125 13 0.98828125 12 C 0.98912225 9.876828 1.0254714 6.323039 1.1132812 4 L 5.9335938 4 L 10.011719 4 L 14.832031 4 C 14.903066 5.8792334 14.933535 8.418833 14.945312 10.5 L 15.945312 10.5 L 15.945312 8 L 15.945312 4 C 15.945312 3.362006 15.885263 2.8214735 15.722656 2.3828125 C 15.559822 1.9441555 15.266706 1.5924156 14.894531 1.3847656 C 14.150171 0.96944965 13.24026 1.01457 11.996094 1 L 11.992188 1 L 10.011719 1 L 5.9335938 1 L 3.953125 1 L 3.9492188 1 z M 13.003906 11.001953 L 13.003906 13.001953 L 11.003906 13.001953 L 11.003906 14.001953 L 13.003906 14.001953 L 13.003906 16.001953 L 14.003906 16.001953 L 14.003906 14.001953 L 16.003906 14.001953 L 16.003906 13.001953 L 14.003906 13.001953 L 14.003906 11.001953 L 13.003906 11.001953 z "
         transform="translate(71.996853,179.99766)"
         id="path5525-3" />
    </g>
  </g>
</svg>

<svg version="1.1" viewBox="0 0 16 16" xmlns="http://www.w3.org/2000/svg">
 <g fill="#bebebe">
  <g transform="translate(-71.997 -180)">
   <path transform="translate(71.997 180)" d="m3.9492 1c-1.2442 0.01457-2.1541-0.030554-2.8984 0.38477-0.37217 0.20765-0.66529 0.55939-0.82812 0.99805-0.16288 0.43866-0.22266 0.95958-0.22266 1.6172v4 5c-3.7007e-17 0.65761 0.059821 1.1785 0.22266 1.6172 0.16282 0.43866 0.45595 0.79039 0.82812 0.99805 0.74436 0.41537 1.6543 0.37027 2.8984 0.38477h0.0039062 1.9805 4.0781 0.48828v-1.0039c-0.17936-4.9e-5 -0.29942 0.003906-0.48828 0.003906h-4.0781c-1.9777 0-3.4458 0.015624-4.1797-0.22461-0.97252-0.44721-0.76562-1.7754-0.76562-2.7754 8.41e-4 -2.1232 0.03719-5.677 0.125-8h4.8203 4.0781 4.8203c0.071035 1.8792 0.1015 4.4188 0.11328 6.5h1v-2.5-4c0-0.63799-0.060049-1.1785-0.22266-1.6172-0.16283-0.43866-0.45595-0.7904-0.82812-0.99805-0.74436-0.41532-1.6543-0.3702-2.8984-0.38477h-0.003906-1.9805-4.0781-1.9805-0.0039062zm9.0547 10.002v2h-2v1h2v2h1v-2h2v-1h-2v-2h-1z" color="#000000" color-rendering="auto" fill="#bebebe" image-rendering="auto" shape-rendering="auto" solid-color="#000000" style="isolation:auto;mix-blend-mode:normal;text-decoration-color:#000000;text-decoration-line:none;text-decoration-style:solid;text-indent:0;text-transform:none;white-space:normal"/>
  </g>
 </g>
</svg>
